src/vs/editor/contrib/suggest/media/Field_inverse_16x.svg

<svg viewBox="0 0 16 16" xmlns="http://www.w3.org/2000/svg"><path d="m16 16h-16v-16h16z" fill="#2d2d30" opacity="0"/><path d="m0 10.736v-6.236l9-4.5 7 3.5v6.236l-9 4.5z" fill="#2d2d30"/><path d="m9 1-8 4v5l6 3 8-4v-5zm-2 5.882-3.764-1.882 5.764-2.882 3.764 1.882z" fill="#75beff"/><path d="m9 2.118 3.764 1.882-5.764 2.882-3.764-1.882z" fill="#2b282e"/></svg>

<svg xmlns="http://www.w3.org/2000/svg" viewBox="0 0 16 16"><style>.icon-canvas-transparent{opacity:0;fill:#2d2d30}.icon-vs-out{fill:#2d2d30}.icon-vs-fg{fill:#2b282e}.icon-vs-action-blue{fill:#75beff}</style><path class="icon-canvas-transparent" d="M16 16H0V0h16v16z" id="canvas"/><path class="icon-vs-out" d="M0 10.736V4.5L9 0l7 3.5v6.236l-9 4.5-7-3.5z" id="outline"/><path class="icon-vs-action-blue" d="M9 1L1 5v5l6 3 8-4V4L9 1zM7 6.882L3.236 5 9 2.118 12.764 4 7 6.882z" id="iconBg"/><path class="icon-vs-fg" d="M9 2.118L12.764 4 7 6.882 3.236 5 9 2.118z" id="iconFg"/></svg>
